X: 06033
T: JENNIFER'S HORNPIPE
C: Bob McQuillen 2 Dec 81
B: Bob's Note Book 6 #33
%R: hornpipe, reel
Z: 2021 John Chambers <jc:trillian.mit.edu>
M: C
L: 1/8
K: D
DE \
| FEFA F2FA | BABd A2FA | BdAF ABdf | abaf e2de |\
| f2af afef | d2B2 BAFA | dfed BdAF | E2D2 D2 :|
|: AB \
| d2de fdBA | dfef d2Bd | e2ef dBde | faba fedA |\
| BABd edBd | fedB ABdf | abaf edBA | F2D2 D2 :|
%%begintext align
%% One of the Monadnock
%% Region's best dancers is Jennifer Price of
%% Keene - I sure hope you like this tune
%% to dance to, Jennifer!
%%endtext

%%sep 1 1 500

%%sep 1 1 500

